X: 263
T: Midnight Ramble
%R: jig
Z: 2017 John Chambers <jc:trillian.mit.edu>
B: John Treat - "Gamut for the Fifes", 1779, p.26 #3
F: https://archive.org/details/GamutFortheFifes
N: Made 1st strain's pickup a triplet, added initial rest to 2nd strain's pickup, to fix the rhythms of repeats.
M: 6/8
L: 1/8
K: G
% - - - - - - - - - - - - - - - - - - - - - - - - -
|:\
GDG BGB | dBd g3 | ded dcB | ABA AFD |\
GDG BGB | dBd g3 | faf gec | d3 D3 :|
|:\
dBG ecA | dBG AFD | dBG efg | ABA AFD |\
dBG ecA | dBG AFD | efg gfe | DGG G3 :|
% - - - - - - - - - - - - - - - - - - - - - - - - -
